public/logos/UZ.svg

<svg height="66" width="185" xmlns="http://www.w3.org/2000/svg"><g fill="#2b2d7f"><path d="m71.68 16.48c5.38 0 8 2.08 8 4.91s-2.64 4.91-8 4.91h-5.32l-6.62 13.88h12.82c5.76 0 8.21 2 8.21 4.81s-2.45 4.82-8.21 4.82h-17.46l-8 16.62h23.57c18.47 0 27.66-8 27.66-18.47a18.15 18.15 0 0 0 -8.67-15.96c4.89-3.24 8.08-8 8.08-13.64 0-11.36-9.82-18.36-25.4-18.36h-23.58l-15 31.4-14.96-31.4h-18.8l24.16 51.22-7.16 15.21h18.5l23.88-49.95z"/><path d="m104.49 28.32h62.77l-7.32-15.48a24.67 24.67 0 0 0 -21.86-12.84h-37.93a25.3 25.3 0 0 1 6.85 17.32 26.22 26.22 0 0 1 -2.51 11z"/><path d="m105 38.11a24.77 24.77 0 0 1 2.52 11 22.82 22.82 0 0 1 -7.39 17.32h85.11l-13.35-28.32z"/></g></svg>

<?xml version="1.0" encoding="UTF-8" standalone="no"?>
<svg xmlns="http://www.w3.org/2000/svg" width="185" height="66">

<path fill="#2b2d7f" d="
	M 71.68,16.48 c 5.38,0 8,2.08 8,4.91 s -2.64,4.91-8,4.91 H 66.36 L 59.74,40.18
	H 72.56 c 5.76,0 8.21,2 8.21,4.81 s -2.45,4.82-8.21,4.82 H 55.1 l -8,16.62
	H 70.67 c 18.47,0 27.66,-8 27.66,-18.47 A 18.15,18.15,0,0,0,89.66,32
	c 4.89,-3.24 8.08,-8 8.08-13.64 C 97.74,7 87.92,0 72.34,0
	H 48.76 l -15,31.4 L 18.8,0 H 0 L 24.16,51.22 L 17,66.43 h 18.5 L 59.38,16.48 Z"/>
<path fill="#2b2d7f" d="
	M 104.49,28.32 h 62.77 l -7.32-15.48 A 24.67,24.67,0,0,0,138.08,0
	H 100.15 A 25.3,25.3,0,0,1,107,17.32 A 26.22,26.22,0,0,1,104.49,28.32 Z"/>
<path fill="#2b2d7f" d="
	M 105,38.11 a 24.77,24.77,0,0,1,2.52,11 a 22.82,22.82,0,0,1,-7.39,17.32
	h 85.11 L 171.89,38.11 Z"/>

</svg>
